X: 14326
T: Gallant Tipperary Boys, The
R: slide
M: 12/8
K: Dmajor
|:dcd DFA B2A ABc|dcd ede f2d def|
g3 f3 efe d2A|BAG FGA B2A A3:|
|:a^ga fef =g2e efg|a2f fed e2A A3|
agf g2e ded c2A|BAG FGA B2A A3:|

